Sources/FrostedUI/Resources/Icons.xcassets/discordSize32.imageset/discord-size-32.svg

<svg
  width="32"
  height="32"
  viewBox="0 0 32 32"
  fill="none"
  xmlns="http://www.w3.org/2000/svg"
  data-fui-icon="true"
>
  <path
    d="M26.1815 6.69705C24.2543 5.81007 22.2197 5.1808 20.1297 4.82535C19.8437 5.33928 19.585 5.86805 19.3545 6.40945C17.1284 6.07223 14.8645 6.07223 12.6384 6.40945C12.4078 5.86812 12.149 5.33935 11.8632 4.82535C9.77194 5.1838 7.73605 5.81456 5.80689 6.70169C1.977 12.398 0.938769 17.9528 1.45788 23.4288C3.70076 25.0947 6.21118 26.3616 8.88002 27.1745C9.48097 26.362 10.0127 25.5001 10.4697 24.5977C9.60178 24.2719 8.76413 23.8699 7.96638 23.3964C8.17634 23.2433 8.38168 23.0856 8.58009 22.9325C10.9013 24.0299 13.4348 24.5988 16 24.5988C18.565 24.5988 21.0985 24.0299 23.4197 22.9325C23.6205 23.0972 23.8259 23.2549 24.0335 23.3964C23.2343 23.8707 22.395 24.2735 21.5256 24.6001C21.982 25.502 22.5137 26.3632 23.1152 27.1745C25.7864 26.3649 28.2987 25.0985 30.542 23.4312C31.1511 17.0808 29.5015 11.577 26.1815 6.69705Z"
    stroke="currentColor"
    stroke-width="1.5"
  />
  <path
    d="M8.4856 17.1179C8.4856 18.7415 9.6807 20.0612 11.1273 20.0612 12.6016 20.0612 13.7413 18.7415 13.7667 17.1179 13.7921 15.4944 12.6062 14.1631 11.1227 14.1631 9.63917 14.1631 8.4856 15.4944 8.4856 17.1179zM18.2334 17.1179C18.2334 18.7415 19.4238 20.0612 20.8727 20.0612 22.347 20.0612 23.4845 18.7415 23.5098 17.1179 23.5353 15.4944 22.3586 14.1631 20.8727 14.1631 19.3869 14.1631 18.2334 15.4944 18.2334 17.1179z"
    fill="currentColor"
  />
</svg>

<svg xmlns="http://www.w3.org/2000/svg" width="32" height="32" fill="none" data-fui-icon="true" viewBox="0 0 32 32"><path stroke="currentColor" stroke-width="1.5" d="M26.182 6.697a24.2 24.2 0 0 0-6.052-1.872 17 17 0 0 0-.775 1.584 22.4 22.4 0 0 0-6.717 0q-.346-.812-.775-1.584c-2.091.359-4.127.99-6.056 1.877-3.83 5.696-4.868 11.25-4.35 16.727a24.3 24.3 0 0 0 7.423 3.746c.601-.813 1.133-1.675 1.59-2.577a16 16 0 0 1-2.504-1.202q.316-.231.614-.463a17.36 17.36 0 0 0 14.84 0c.2.164.406.322.613.463-.799.475-1.638.877-2.507 1.204a18 18 0 0 0 1.59 2.574 24.2 24.2 0 0 0 7.426-3.743c.61-6.35-1.04-11.854-4.36-16.734Z"/><path fill="currentColor" d="M8.486 17.118c0 1.624 1.195 2.943 2.641 2.943 1.475 0 2.614-1.32 2.64-2.943.025-1.624-1.16-2.955-2.644-2.955s-2.637 1.331-2.637 2.955m9.747 0c0 1.624 1.19 2.943 2.64 2.943 1.474 0 2.611-1.32 2.637-2.943.025-1.624-1.151-2.955-2.637-2.955s-2.64 1.331-2.64 2.955"/></svg>
